X:9
T:score104
L:1/8
Q:1/4=96
M:4/4
I:linebreak $
K:C
!ff! !>!c4 !>!B3 ^F | (A2 G2) .=F2 .D2 | C4 D2 G,>D |$ E2 .C,.E, .G,.C.E.G | !>!c4 !>!B3 ^F | %5
 (A2 G2) .=F2 .D2 |$ C4 E2 D>E | (D4 C2) z2 |] %8
